X:533
T:Reel 533
M:4/4
K:Amaj
L:1/8
A>G (3GFE F>D (3DCB, |A,>A (3GAG A>G (3GFE |A>A (3AGA GABG|AGF>D C>E (3EFG |A>A (3AGA c>A (3AGA |B>A (3AGA c>A (3AGA |F>D (3DCD G>A (3BAG |A2:||2A2AG ABcA|BAGE GABAGA|B>A (3AGA BAAG|A>A (3AGA B>e (3edc |A>B (3GFE BGEG|F>D (3DFA dAGA|B>G (3GGG B>G (3EFG |AcBA cAA2|A>A (3AGA c>A (3AGA |B>A (3AGA BcBA|
